!!!!SEGMENT: pl-wumfc--n53446--001-022_moniuszko-stanislaw--hrabina-no-18-arietta.krn
!!!cenid: 18xx:4109
!!!COM: Moniuszko, Stanisław
!!!COM-rismID: pe30008351
!!!CDT: 1819/05/05-1872/06/04
!!!CNT: Polish
!!!OPR: Hrabina
!!!OTL: No. 18. Arietta
!!!OMV: 022
!!!PDT:
!!!AGN:
!!!YEC: Copyright 2022 Narodowy Instytut Fryderyka Chopina (https://polishscores.org)
!!!YEM: License CC-BY-4.0 (https://creativecommons.org/licenses/by/4.0)
!!!SMS-siglum: PL-Wumfc
!!!SMS-shelfmark: N53446
!!!SMS-shelfwork: 001-022 M
!!!SMS-variant:
!!!SMS-altvar:
!!!NIFC-rismSourceID: 1001165649
!!!NIFC-rismChildID: 1001165649
!!!NIFC-islandoraID: pl-wumfc:6884
!!!URL-pdf-islandora: https://repozytorium.nifc.pl/islandora/object/pl-wumfc%3A6884/datastream/PDF/view
!!!URL-scan: https://polish.musicsources.pl/pl/lokalizacje/galeria/druki-muzyczne/12579 @EN{Scan on Polish Music Sources Website} @PL{Skany w portalu Dziedzictwo Muzyki Polskiej w otwartym dostępie}
!!!IIIF:
!!!ONB-nifc:
!!!AIN: 1 piano
!!!key: C
**kern	**kern	**text	**dynam
*part1	*part1	*	*
*staff2	*staff1	*	*
*I"[Piano.]	*I"[Piano.]	*	*
*>[A,B,B,C]	*>[A,B,B,C]	*	*
*>A	*>A	*	*
*Ipiano	*Ipiano	*	*
*ICklav	*ICklav	*	*
*clefF4	*clefG2	*	*
*k[]	*k[]	*	*
*C:	*C:	*	*
*M2/4	*M2/4	*	*
=1	=1	=1	=1
!!LO:TX:B:a:t=Allegro.
!	!LO:TX:t=P:problem:cały tekst zapisany ponad pięciolinią	!	!
4r	4r	.	.
8eL 8c'\	8eeL 8cc 8g'\	.	f
8dJ 8B'\	8ggJ 8dd 8g'\	.	.
=2	=2	=2	=2
8cL 8A'\	8ccL 8a 8e'/	.	.
8B 8G'\	8ee 8b 8e'/	.	.
8c 8F'\	8a 8f'/	.	.
8GJ 8GG'\	8bJ 8d'/	.	.
=3	=3	=3	=3
8C'\L	8cc 8e 8c/	.	fp
8G'\	8r	.	.
8GG'\	8ccL 8e 8c'/	Po	.
8G'\J	8bJ 8e 8c'/	co	.
=4	=4	=4	=4
8C'\L	8bL 8e 8c'/	się	.
8G'\	8b-X 8e 8c'/	to	.
8GG'\	8b- 8e 8c'/	myśl	.
8G'\J	8aJ 8e 8c'/	na-	.
=5	=5	=5	=5
8C'\L	8aL 8e 8c'/	-tę-	.
8G'\	8a-X 8e 8c'/	-ża,	.
8GG'\	8a- 8e 8c'/	naj-	.
8G'\J	8gJ 8e 8c'/	-zwy-	.
=6	=6	=6	=6
8C'\L	8f#XL 8e 8c'/	-klej-	.
8G'\	8g 8e 8c'/	-sza	.
.	8qb/	.	.
8GG'\	8an 8e 8c'/	to	.
8G'\J	8gJ 8e 8c'/	za-	.
!!LO:LB:g=original
=7	=7	=7	=7
8BB'\L	8gL 8f 8d/	-gad-	.
8G'\	8g/J	-ka	.
8GG'\	8ddL 8g 8f/	tout	.
8G'\J	8ddJ 8g 8f/	bonne-	.
=8	=8	=8	=8
8BB'\L	4g 4f 4d/	-ment	.
8G'\	.	.	.
8GG'\	8ddL 8g 8f'/	tout	.
8G'\J	8ddJ 8g 8f'/	bonne-	.
=9	=9	=9	=9
8BB'\L	4g 4f 4d/	-ment	.
8G'\	.	.	.
8GG'\	8ddL 8f'/	i-	.
8G'\J	8eeJ 8f'/	-dą	.
=10	=10	=10	=10
8D'\L	8ffL 8f'/	lat-	.
8G'\	8dd 8f'/	-ka	.
8GG'\	8a 8f'/	trze-	.
8G'\J	8bJ 8f'/	-ba	.
=11	=11	=11	=11
8C'\L	8ddL 8e'/	mę-	.
8G'\	8cc'/J	-ża	.
8GG'\	8ccL 8e 8c'/	.	.
8G'\J	8bJ 8e 8c'/	.	.
=12	=12	=12	=12
*	*^	*	*
8C'\L	8b'/L	8eL 8c\	.	.
8G'\	8b-X'/	8e 8c\	.	.
8GG'\	8b-'/	8e 8c\	.	.
8G'\J	8a'/J	8eJ 8c\	.	.
=13	=13	=13	=13	=13
8C'\L	8a'/L	8eL 8c\	.	.
8G'\	8a-X'/	8e 8c\	.	.
8GG'\	8a-'/	8e 8c\	.	.
8G'\J	8g'/J	8eJ 8c\	.	.
!!LO:LB:g=original
=14	=14	=14	=14	=14
8C'\L	8f#X/L	8eL 8c\	.	.
8G'\	8g/	8e 8c\	.	.
.	8qb/	.	.	.
8GG'\	8an/	8e 8c\	.	.
8G'\J	8g/J	8eJ 8c\	.	.
*	*v	*v	*	*
=15	=15	=15	=15
8BB\L	8gL 8f 8d/	.	.
8G\	8g/J	.	.
8GG\	8ddL 8g 8f'/	.	.
8G\J	8ddJ 8g 8f'/	.	.
=16	=16	=16	=16
8BB\L	4g 4f 4d/	.	.
8G\	.	.	.
8GG\	8ddL 8g 8f'/	.	.
8G\J	8ddJ 8g 8f'/	.	.
=17	=17	=17	=17
8BB\L	4g 4f 4d/	.	.
8G\	.	.	.
8GG\	8ddL 8f'/	.	.
8G\J	8eeJ 8f'/	.	.
=18	=18	=18	=18
8D\L	8ffL 8f'\	.	.
8G\	8dd 8f'\	.	.
8GG\	8a 8f'\	.	.
8G\J	8bJ 8f'\	.	.
=19	=19	=19	=19
4C/	8ccL 8e/	.	.
.	8cc/J	.	.
8c'\L	8eeeL 8ccc 8ee\	.	f
8B'\J	8eeeJ 8ccc 8ee\	.	.
=20	=20	=20	=20
8B'\L	8eeeL 8ccc 8ee\	.	.
8A'\	8eee 8ccc 8ee\	.	.
8A'\	8eee 8ccc 8ee\	.	.
8A-X'\J	8eeeJ 8ccc 8ee\	.	.
!!LO:LB:g=original
=21	=21	=21	=21
8A-X'\L	8eeeL 8ccc 8ee\	.	.
8G'\	8eee 8ccc 8ee\	.	.
8G'\	8eee 8ccc 8ee\	.	.
8F#X'\J	8eeeJ 8ccc 8ee\	.	.
=22	=22	=22	=22
8F#X'\L	8eeeL 8ccc 8ee\	.	.
8Fn'\	8eee 8ccc 8ee\	.	.
8F'\	8eee 8ccc 8ee\	.	.
8E'\J	8eeeJ 8ccc 8ee\	.	.
=23	=23	=23	=23
8E'\L	8eee 8ccc 8ee\	.	p
8e'\	8r	.	.
8E'\	8eeL 8cc'\	.	.
8e'\J	8dd#XJ 8cc'\	.	.
=24	=24	=24	=24
8E'\L	8dd#XL 8cc'\	.	.
8e'\	8ddn 8b'\	.	.
8E'\	8dd 8b'\	.	.
8e'\J	8cc#XJ 8a#X'\	.	.
=25	=25	=25	=25
8E'\L	8cc#XL 8a#X'/	.	.
8e'\	8ccn 8an'/	.	.
8E'\	8cc 8a'/	.	.
8e'\J	8bJ 8g#X'/	.	.
=26	=26	=26	=26
8E'\L	8bL 8g#X'\	.	.
8e'\	8cc 8a'\	.	.
8E'\	8dd 8b'\	.	.
8e'\J	8eeJ 8g#'\	.	.
=27	=27	=27	=27
8A\	8ccL 8a\	.	.
8r	8a\J	.	.
8A'\L	8cccL 8aa 8cc'\	.	f
8G'\J	8cccJ 8aa 8cc'\	.	.
!!LO:LB:g=original
=28	=28	=28	=28
8G\L	8cccL 8aa 8cc\	.	.
8F\	8ccc 8aa 8cc\	.	.
8F\	8ccc 8aa 8cc\	.	.
8E\J	8cccJ 8aa 8cc\	.	.
=29	=29	=29	=29
8E\L	8cccL 8aa 8cc\	.	.
8E-X\	8ccc 8aa 8cc\	.	.
8E-\	8ccc 8aa 8cc\	.	.
8D\J	8cccJ 8aa 8cc\	.	.
=30	=30	=30	=30
8D/L	8cccL 8aa 8cc'\	.	.
8D-X/	8ccc 8aa 8cc'\	.	.
8D-/	8ccc 8aa 8cc'\	.	.
8C/J	8cccJ 8aa 8cc'\	.	.
=31	=31	=31	=31
8C'\L	8ccc 8aa 8cc'\	.	p
8c'\	8r	.	.
8C'\	8ccL 8a'/	.	.
8c'\J	8bJ 8g#X'/	.	.
=32	=32	=32	=32
8C'\L	8bL 8g#X'/	.	.
8c'\	8b-X 8gn'/	.	.
8C'\	8b- 8g'/	.	.
8c'\J	8aJ 8f#X'/	.	.
=33	=33	=33	=33
8C'\L	8aL 8f#X'/	.	.
8c'\	8a-X 8fn'/	.	.
8C'\	8a- 8f'/	.	.
8c'\J	8gJ 8e'/	.	.
=34	=34	=34	=34
8C'\L	8gL 8e'/	.	.
8c'\	8a 8f'/	.	.
8C'\	8b-X 8g'/	.	.
8c'\J	8ccJ 8e'/	.	.
!!LO:PB:g=original
=35	=35	=35	=35
8F'\L	8aL 8f/	.	.
8c 8A'\	8a/J	.	.
8C'\	(8.a/L	.	.
8cJ 8A'\	.	.	.
.	16b-X/Jk	.	.
=36	=36	=36	=36
8F'\L	4cc\	.	.
8c 8A'\	.	.	.
8C'\	4aa\	.	.
8cJ 8A'\	.	.	.
=37	=37	=37	=37
8D'\L	4gg#X\	.	.
8c 8F'\	.	.	.
8D'\	4bn\	.	.
8cJ 8F'\	.	.	.
=38	=38	=38	=38
8E'\L	4b-X\	.	.
8c 8G'\	.	.	.
8E'\	4ggn\	.	.
8cJ 8G'\	.	.	.
=39	=39	=39	=39
8F'\L	8ff\)	.	.
8c 8A'\	8r	.	.
8C'\	8.a/L	.	.
8cJ 8A'\	.	.	.
.	16b-X/Jk	.	.
=40	=40	=40	=40
8AA'\L	4cc\	.	.
8cJ 8A'\	.	.	.
8FF'\L	4ff\	.	.
8cJ 8A'\	.	.	.
=41	=41	=41	=41
*	*^	*	*
8BB-X'\L	4dd\	4ryy	.	.
8dJ 8B-X'\	.	.	.	.
8G'\L	4b-X/	8.g\L	.	.
8dJ 8B-'\	.	.	.	.
.	.	16f\Jk	.	.
*	*v	*v	*	*
=42	=42	=42	=42
8C\L	4g 4e/	.	.
8cJ 8B-X'\	.	.	.
8G'\L	4cc 4e/	.	.
8cJ 8B-'\	.	.	.
!!LO:LB:g=original
=43	=43	=43	=43
8F'\L	8a 8f/	.	.
8c 8A'\	8r	.	.
8C'\	(8.aL 8.f/	.	<
8cJ 8A'\	.	.	.
.	16b-XJk 16g/	.	.
=44	=44	=44	=44
*^	*	*	*
8F'\L	4ryy	4cc 4a\	.	.
8cJ 8A'\	.	.	.	.
8C/L	(4C\	4aa 4a\	.	.
8cJ 8A/	.	.	.	.
=45	=45	=45	=45	=45
8D-X/L	4D-\	4aa-X 4a-X\	.	[
8BnJ 8F/	.	.	.	.
8Dn/L	4D\	4bn 4a-/	.	>
8BJ 8F/	.	.	.	.
=46	=46	=46	=46	=46
8E-X/L	4E-\	4b-X 4g/	.	.
8cJ 8G/	.	.	.	.
8En/L	4E\	4gg 4b-\	.	]
8cJ 8G/	.	.	.	.
*v	*v	*	*	*
=47	=47	=47	=47
8F\L)	8ff 8a\)	.	.
8cJ 8A\	8r	.	.
8AA\L	8.f/L	.	.
8cJ 8F\	.	.	.
.	16g/Jk	.	.
=48	=48	=48	=48
8F\L	4a/	.	.
8cJ 8A\	.	.	.
8D\L	4ff 4a\	.	.
8BnJ 8F\	.	.	.
=49	=49	=49	=49
8E\L	4ee 4a\	.	.
8cJ 8A\	.	.	.
8E\L	4cc 4a\	.	.
8eJ 8c\	.	.	.
!!LO:LB:g=original
=50	=50	=50	=50
8E\L	4b 4a/	.	.
8dJ 8B\	.	.	.
8E\L	4ee 4g#X\	.	.
8dJ 8B\	.	.	.
=51	=51	=51	=51
8c 8A\	8a/	.	.
8r	8r	.	.
8c\L	(8cc\L	.	<
8B\J	8b\J	.	.
=52	=52	=52	=52
8A\L	8a\L	.	[[
8c\	8cc\J	.	.
8f\	8.ff\L	.	>
8d#X\J	.	.	.
.	16dd#X\Jk)	.	]
=53	=53	=53	=53
*	*^	*	*
4e\	4.ee/	4r	.	.
8dn'\L	.	8g#XL 8e\	.	pp
8d'\J	8g#/	8g#J 8e\	.	.
=54	=54	=54	=54	=54
8c'\L	4a/	8e\L	.	.
8c'\	.	8e\	.	.
8B'\	4b/	8g#X 8e\	.	.
8B'\J	.	8g#J 8e\	.	.
=55	=55	=55	=55	=55
8A\	8cc/	8a 8e\	.	.
8r	8r	8ryy	.	.
(8A\L	(8a/L	4ryy	.	<
8G\J	8gn/J	.	.	.
*	*v	*v	*	*
=56	=56	=56	=56
8F\L	8f/L	.	[[
8A\	8a/	.	.
8d\	8dd/	.	>
8B\J)	8b/J)	.	]
!!LO:LB:g=original
=57	=57	=57	=57
*	*^	*	*
4c\	(4.cc/	4r	.	.
8cL 8B-X'\	.	8gL 8e'\	.	.
8cJ 8B-'\	8g/	8gJ 8e'\	.	.
=58	=58	=58	=58	=58
8cL 8A'\	4a/)	8f'\L	.	.
8c 8A'\	.	8f'\	.	.
8c 8G'\	4b-X/	8e'\	.	.
8cJ 8G'\	.	8e'\J	.	.
*	*v	*v	*	*
=59	=59	=59	=59
16F\LL	8.aL 8.f/	.	.
16f\	.	.	.
16F\	.	.	.
16f\JJ	16ccJk 16a/	.	.
16F\LL	8.ccL 8.a/	.	.
16f\	.	.	.
16F\	.	.	.
16f\JJ	16ccJk 16a/	.	.
=60	=60	=60	=60
16F\LL	8.cc#XL 8.a/	.	.
16f\	.	.	.
16F\	.	.	.
16f\JJ	16cc#Jk 16a/	.	.
16F\LL	8.cc#L 8.a/	.	.
16f\	.	.	.
16F\	.	.	.
16f\JJ	16cc#Jk 16a/	.	.
=61	=61	=61	=61
16F\LL	8.ddL 8.a\	.	.
16f\	.	.	.
16F\	.	.	.
16f\JJ	16ddJk 16a\	.	.
16F\LL	8.ddL 8.a\	.	.
16f\	.	.	.
16F\	.	.	.
16f\JJ	16ddJk 16a\	.	.
!!LO:LB:g=original
=62	=62	=62	=62
16F\LL	8.dd#XL 8.a\	.	.
16f\	.	.	.
16F\	.	.	.
16f\JJ	16dd#Jk 16a\	.	.
16F\LL	8.dd#L 8.a\	.	.
16f\	.	.	.
16F\	.	.	.
16f\JJ	16dd#Jk 16a\	.	.
=63	=63	=63	=63
8eL 8E\	8eeL 8g#X\	.	.
8e 8c 8A'\	8ee 8cc 8a'\	.	f
8e 8B 8G#X'\	8ee 8dd 8b'\	.	.
8eJ 8c 8A'\	8eeJ 8cc 8a'\	.	.
=64	=64	=64	=64
8eL 8B 8E'\	8eeL 8b 8g#X'\	.	.
8e 8c 8A'\	8ee 8cc 8a'\	.	.
8e 8B 8G#X'\	8ee 8dd 8b'\	.	.
8eJ 8A'\	8eeJ 8cc 8a'\	.	.
=65	=65	=65	=65
8e 8E\	8ee 8b 8g#X\	.	.
8AL 8AA/	8aaL 8ee 8cc\	.	ff
8E 8EE/	8gg#X 8ee 8b\	.	.
8EJ 8AA/	8aaJ 8ee 8cc\	.	.
=66	=66	=66	=66
8EL 8EE/	8gg#XL 8ee 8b\	.	.
8E 8AA/	8aa 8ee 8cc\	.	.
8E 8GG#X/	8bb 8ee 8dd\	.	.
8EJ 8AA/	8aaJ 8ee 8cc\	.	.
=67	=67	=67	=67
8E 8EE/	8gg#X 8ee 8b\	.	.
8r	8r	.	.
8.e^\L	8.ee^\L	.	f
16d\Jk	16dd\Jk	.	.
!!LO:PB:g=original
=68	=68	=68	=68
8.d^\L	8.dd^\L	.	.
16c#X\Jk	16cc#X\Jk	.	.
8.c#^\L	8.cc#^\L	.	.
16cn\Jk	16ccn\Jk	.	.
=69	=69	=69	=69
8.c^\L	8.cc^\L	.	.
16B\Jk	16b\Jk	.	.
8.B^\L	8.b^\L	.	.
16B-X\Jk	16b-X\Jk	.	.
=70	=70	=70	=70
8.B-X^\L	8.b-X^/L	.	.
16A\Jk	16a/Jk	.	.
8.A^\L	8.a^/L	.	.
16A-X\Jk	16a-X/Jk	.	.
=71	=71	=71	=71
8.A-X\L	8.a-X^/L	.	.
16G\Jk	16g/Jk	.	.
8.GL 8.GG^/	8.ggL 8.g^\	.	ff
16GJk 16AAn 16GG/	16ff#XJk 16g\	.	.
=72	=72	=72	=72
8.GL 8.AA 8.GG^/	8.ff#XL 8.g^\	.	.
16GJk 16BB 16GG/	16ffnJk 16g\	.	.
8.GL 8.BB 8.GG^/	8.ffL 8.g^\	.	.
16GJk 16C 16GG/	16eeJk 16g\	.	.
=73	=73	=73	=73
8.GL 8.C 8.GG^/	8.eeL 8.g^\	.	.
16GJk 16C#X 16GG/	16ee-XJk 16g\	.	.
8.GL 8.C# 8.GG^/	8.ee-L 8.g^\	.	.
16GJk 16D 16GG/	16ddJk 16g\	.	.
!!LO:LB:g=original
=74	=74	=74	=74
8.GL 8.D 8.GG^/	8.ddL 8.g^\	.	.
16GJk 16D#X 16GG/	16dd-XJk 16g\	.	.
8.GL 8.D# 8.GG/	8.dd-L 8.g\	.	.
16GJk 16E 16C/	16ccJk 16g\	.	.
=75	=75	=75	=75
8G 8E 8C^^\	8cc 8g^^/	.	.
8G'\L	8r	.	pp
8GG'\	8ccL 8e 8c'/	.	.
8G'\J	8bJ 8e 8c'/	.	.
=76	=76	=76	=76
8C'\L	8bL 8e 8c'/	.	.
8G'\	8b-X 8e 8c'/	.	.
8GG'\	8b- 8e 8c'/	.	.
8G'\J	8aJ 8e 8c'/	.	.
=77	=77	=77	=77
8C'\L	8aL 8e 8c/	.	.
8G'\	8a-X 8e 8c/	.	.
8GG'\	8a- 8e 8c/	.	.
8G'\J	8gJ 8e 8c/	.	.
=78	=78	=78	=78
8C'\L	8f#XL 8e 8c/	.	.
8G'\	8g 8e 8c/	.	.
8GG'\	8an 8e 8c/	.	.
8G'\J	8gJ 8e 8c/	.	.
=79	=79	=79	=79
8BB\L	4g 4f 4d/	.	.
8G\	.	.	.
8GG\	8ddL 8g 8f'/	.	.
8G\J	8ddJ 8g 8f'/	.	.
!!LO:LB:g=original
=80	=80	=80	=80
8BB\L	4g 4f 4d/	.	.
8G\	.	.	.
8GG\	8ddL 8g 8f'/	.	.
8G\J	8ddJ 8g 8f'/	.	.
=81	=81	=81	=81
8BB\L	4g 4f 4d/	.	.
8G\	.	.	.
8GG\	8ddL 8f'/	.	.
8G\J	8eeJ 8f'/	.	.
=82	=82	=82	=82
8D'\L	8ffL 8f'/	.	.
8G'\	8dd 8f'/	.	.
8GG'\	8a 8f'/	.	.
8G'\J	8bJ 8f'/	.	.
=83	=83	=83	=83
8C'\L	8ddL 8e/	.	.
8G'\	8cc/J	.	.
8GG'\	8ccL 8e 8c'/	.	.
8G'\J	8bJ 8e 8c'/	.	.
=84	=84	=84	=84
*	*^	*	*
8C'\L	8b'/L	8eL 8c\	.	.
8G'\	8b-X'/	8e 8c\	.	.
8GG'\	8b-'/	8e 8c\	.	.
8G'\J	8a'/J	8eJ 8c\	.	.
=85	=85	=85	=85	=85
8C'\L	8a'/L	8eL 8c\	.	.
8G'\	8a-X'/	8e 8c\	.	.
8GG'\	8a-'/	8e 8c\	.	.
8G'\J	8g'/J	8eJ 8c\	.	.
!!LO:LB:g=original
=86	=86	=86	=86	=86
8C\L	8f#X/L	8eL 8c\	.	.
8G\	8g/	8e 8c\	.	.
.	8qb/	.	.	.
8GG\	8an/	8e 8c\	.	.
8G\J	8g/J	8eJ 8c\	.	.
*	*v	*v	*	*
=87	=87	=87	=87
8BB\L	4g 4f 4d/	.	.
8G\	.	.	.
8GG\	8ddL 8g 8f/	.	.
8G\J	8ddJ 8g 8f/	.	.
=88	=88	=88	=88
8BB\L	4g 4f 4d/	.	.
8G\	.	.	.
8GG\	8ddL 8g 8f/	.	.
8G\J	8ddJ 8g 8f/	.	.
=89	=89	=89	=89
8BB\L	4g 4f 4d/	.	.
8G\	.	.	.
8GG\	8ddL 8f/	.	.
8G\J	8eeJ 8f/	.	.
=90	=90	=90	=90
8G 8GG/	8.ggL 8.dd 8.b 8.f;\	.	.
8r;	.	.	.
.	32ff\LL	.	.
.	32ee\JJJ	.	.
4r;	8.dd;\L	.	.
.	16g\Jk	.	.
=91!|:	=91!|:	=91!|:	=91!|:
*>B	*>B	*	*
!	!LO:TX:i:a:t=scherzando	!	!
8GL 8C'/	4cc 4e/	.	.
8G 8BB'/	.	.	p
8G 8AA'/	8ccL 8e'/	.	.
8GJ 8GG'/	8bJ 8e'/	.	.
=92	=92	=92	=92
8GL 8C'/	8aL 8f'/	.	.
8G 8BB'/	8g 8f'/	.	.
8G 8AA'/	8dd 8f'/	.	.
8GJ 8GG'/	8ffJ 8f'/	.	.
!!LO:LB:g=original
=93	=93	=93	=93
8GL 8C'/	8eeL 8e'/	.	.
8G 8BB'/	8g 8e'/	.	.
8G 8AA'/	8cc 8e'/	.	.
8GJ 8GG'/	8gJ 8e'/	.	.
=94	=94	=94	=94
8GL 8C'/	8aL 8f'/	.	.
8G 8BB'/	8b 8f'/	.	.
8G 8AA'/	8cc 8f'/	.	.
8GJ 8GG'/	8ddJ 8f'/	.	.
=95	=95	=95	=95
*	*^	*	*
8GL 8C'/	8ee/L	8e'\L	.	.
8G 8BB'/	8cc/J	8e'\	.	.
8G 8AA'/	8cc/L	8e'\	.	.
8GJ 8GG'/	8b/J	8e'\J	.	.
*	*v	*v	*	*
=96	=96	=96	=96
8GL 8C'/	8aL 8f'/	.	.
8G 8BB'/	8g 8f'/	.	.
8G 8AA'/	8dd 8f'/	.	.
8GJ 8GG'/	8ffJ 8f'/	.	.
=97	=97	=97	=97
8GL 8C'/	8eeL 8e'/	.	.
8G 8BB'/	8g 8e'/	.	.
8G 8AA'/	8cc 8e'/	.	.
8GJ 8GG'/	8bJ 8e'/	.	.
=98	=98	=98	=98
8GL 8C'/	8aL 8f/	.	.
8G 8BB'/	8b 8g 8f/	.	.
8G 8AA'/	8cc 8a 8f/	.	.
8GJ 8GG'/	8ddJ 8b 8f/	.	.
!!LO:PB:g=original
=99	=99	=99	=99
*^	*^	*	*
2G/	8EL 8C\	8eeL 8cc/	[2e\	.	.
.	8E 8C\	8cc/J	.	.	.
!	!	!	!	!	!LO:HP:b:cre-scen-do:ext2=ud
.	8E 8C\	(16dd/LL	.	.	<
.	.	16cc/	.	.	.
.	8EJ 8C\	16b/	.	.	.
.	.	16cc/JJ)	.	.	.
=100	=100	=100	=100	=100	=100
2G#X/	8EL 8C\	4ee^/	2e\_	.	.
.	8E 8C\	.	.	.	.
.	8E 8C\	(16dd/LL	.	.	.
.	.	16cc/	.	.	.
.	8EJ 8C\	16b/	.	.	.
.	.	16cc/JJ)	.	.	.
=101	=101	=101	=101	=101	=101
2A/	8EL 8C\	4ee^/	2e\_	.	.
.	8E 8C\	.	.	.	.
.	8E 8C\	(16dd/LL	.	.	.
.	.	16cc/	.	.	.
.	8EJ 8C\	16b/	.	.	[
.	.	16cc/JJ)	.	.	.
*v	*v	*	*	*	*
*	*v	*v	*	*
=102	=102	=102	=102
8B-XL 8G 8C\	8eeL 8e/]	.	.
8G'\	16dd/L	.	<
.	16cc/JJ	.	.
8E'\	16bn\LL	.	.
.	16cc\	.	.
8C'\J	16dd\	.	.
.	16ee\JJ	.	[[
=103	=103	=103	=103
*ped	*	*	*
8F 8FF/	2gg 2ee 2cc#X 2b-X\	.	f
8c#XL 8B-X 8G 8F\	.	.	.
8c# 8B- 8G 8F\	.	.	.
8c#J 8B- 8G 8F\	.	.	.
!!LO:LB:g=original
=104	=104	=104	=104
*Xped	*	*	*
8C#X\L	8ggL 8ee 8b-X'\	.	.
8D\	8ff 8dd 8a'\	.	.
8E\	8ee 8a 8g'\	.	.
8F\J	8ddJ 8a 8f'\	.	.
=105	=105	=105	=105
4G\	4cc#X 4a 4e/	.	.
8F\L	8ddL 8a 8d/	.	.
16r	16r	.	.
16C#X\Jk	16eeJk 16cc# 16g 16e/	.	.
=106	=106	=106	=106
8D\	8ff 8dd 8a 8f\	.	.
8r	8r	.	.
4d 4G^^\	4b 4f^^/	.	.
=107:|!	=107:|!	=107:|!	=107:|!
*>C	*>C	*	*
8c 8G 8C\	8cc 8e/	.	.
8r	8r	.	.
8e'\L	8ee'\L	.	f
8c'\J	8cc'\J	.	.
=108	=108	=108	=108
8G\	8g/	.	.
8CL 8CC/	8eL 8c 8G/	.	.
8C 8CC/	8f 8c 8A/	.	.
8CJ 8CC/	8aJ 8f 8c/	.	.
=109	=109	=109	=109
8C 8CC/	8g 8e 8c/	.	.
8r	8r	.	.
8e\L	8ee\L	.	.
8c'\J	8cc'\J	.	.
!!LO:LB:g=original
=110	=110	=110	=110
8G'\	8g'/	.	.
8CL 8CC'/	8eL 8c 8G'/	.	.
8C 8CC'/	8f 8c 8A'/	.	.
8CJ 8CC'/	8aJ 8f 8c'/	.	.
=111	=111	=111	=111
4C 4CC/	4g 4e 4c/	.	.
8.F#X\L	8.f#X/L	.	p
16G\Jk	16g/Jk	.	.
=112	=112	=112	=112
8qB/	8qb/	.	.
8.A\L	8.a/L	.	.
!	!	!	!LO:HP:b:t=cre-scen-do:ext2=ud
16G\K	16g/K	.	<
8.A\	8.a/	.	.
16B\Jk	16b/Jk	.	.
=113	=113	=113	=113
8.c\L	8.cc\L	.	.
16B\K	16b\K	.	.
8.c\	8.cc\	.	.
16d\Jk	16dd\Jk	.	.
=114	=114	=114	=114
8.e-X\L	8.ee-X\L	.	.
16d\K	16dd\K	.	.
8.e-\	8.ee-\	.	[
16f\Jk	16ff\Jk	.	.
=115	=115	=115	=115
*ped	*	*	*
(16C\LL	16ff#XLL 16ee-X 16cc\	.	ff
16E-X\	16a\	.	.
16F#X\	16ff# 16ee- 16cc\	.	.
16A\JJ	16a\JJ	.	.
16c\LL	16ff#LL 16ee- 16cc\	.	.
16A\	16a\	.	.
16F#\	16ff# 16ee- 16cc\	.	.
16E-\JJ)	16a\JJ	.	.
!!LO:LB:g=original
=116	=116	=116	=116
*Xped	*	*	*
4C/	4ff#X 4ee-X 4cc 4a\	.	.
4r	8.ff#L 8.f#X\	.	.
.	16ff#Jk 16f#\	.	.
=117	=117	=117	=117
*	*^	*	*
4r	4.gg 4.g/	4r	.	.
8En 8EEn/	.	8cc#X 8b-X\	.	f
8r	16ff/LL	8r	.	.
.	16ee/JJ	.	.	.
=118	=118	=118	=118	=118
8F 8FF/	4.dd;/	8a 8f 8d\	.	.
8r;	.	8r	.	.
8G 8GG/	.	8bn 8f 8d\	.	.
8r	8g/	8r	.	.
*	*v	*v	*	*
=119	=119	=119	=119
8cL 8G 8E 8C'\	8cc 8g 8e/	.	.
8G 8E 8GG'\	8r	.	ff
8G 8E 8C'\	8cccL 8ee 8cc'\	.	.
8GJ 8E 8GG'\	8bbJ 8ee 8b'\	.	.
=120	=120	=120	=120
8GL 8E 8C'\	8bbL 8ee 8b'\	.	.
8G 8E 8GG'\	8bb-X 8ee 8b-X'\	.	.
8G 8E 8C'\	8bb- 8ee 8b-'\	.	.
8GJ 8E 8GG'\	8aaJ 8ee 8a'\	.	.
=121	=121	=121	=121
8GL 8E 8C'\	8aaL 8ee 8a'\	.	.
8G 8E 8GG'\	8aa-X 8ee 8a-X'\	.	.
8G 8E 8C'\	8aa- 8ee 8a-'\	.	.
8GJ 8E 8GG'\	8ggJ 8ee 8g'\	.	.
!!LO:LB:g=original
=122	=122	=122	=122
8GL 8E 8C'\	8ff#XL 8ee 8f#X'\	.	.
8G 8E 8GG'\	8gg 8ee 8g'\	.	.
.	8qbb/	.	.
8G 8E 8C'\	8aan 8ee 8an'\	.	.
8GJ 8E 8GG'\	8ggJ 8ee 8g'\	.	.
=123	=123	=123	=123
8GL 8F 8BB\	4gg 4ffn 4dd 4g^^\	.	.
8G 8F 8GG\	.	.	.
8G 8F 8BB\	8dddL 8ff 8dd'\	.	.
8GJ 8F 8GG\	8dddJ 8ff 8dd'\	.	.
=124	=124	=124	=124
8GL 8F 8BB\	4gg 4ff 4dd^^\	.	.
8G 8F 8GG\	.	.	.
8G 8F 8BB\	8dddL 8ff 8dd'\	.	.
8GJ 8F 8GG\	8dddJ 8ff 8dd'\	.	.
=125	=125	=125	=125
4G 4GG/	4gg 4ff 4dd^^\	.	.
8d'\L	8dddL 8dd'\	.	.
8e'\J	8eeeJ 8ee'\	.	.
=126	=126	=126	=126
(8g^\L	(8gggL 8gg^\	.	.
16f\L	16fff\L	.	.
16e\JJ	16eee\JJ	.	.
8d\)	8ddd\)	.	.
8G 8GG'/	8gg 8dd 8b 8g'\	.	.
=127	=127	=127	=127
8C 8CC'/	8ccc 8ee 8cc'\	.	.
8r	8r	.	.
4r	4r	.	.
==	==	==	==
*-	*-	*-	*-
!!!system-decoration: {(p1)}
!!!RDF**kern: > = above
!!!RDF**kern: < = below
!!!ENC: Berenika Jozajtis
!!!END: 2022-08-23
!!!ENC: Kamil Watkowski
!!!END: 2022-09-29
